public/assets/stormgeo.svg

<?xml version="1.0" encoding="UTF-8"?>
<svg width="100%" height="100%" preserveAspectRatio="xMidYMid meet" viewBox="0 0 122 20" version="1.1" xmlns="http://www.w3.org/2000/svg" xmlns:xlink="http://www.w3.org/1999/xlink">
    <!-- Generator: Sketch 47.1 (45422) - http://www.bohemiancoding.com/sketch -->
    <title>Logotype</title>
    <desc>Created with Sketch.</desc>
    <defs/>
    <g id="Symbols" stroke="none" stroke-width="1" fill="none" fill-rule="evenodd">
        <g id="Top-Navigation" transform="translate(-79.000000, -35.000000)" fill="#000000">
            <g id="Logotype">
                <g transform="translate(79.000000, 35.000000)">
                    <path d="M14.0883721,4.04415766 C12.9550388,3.4626448 11.4914729,3.04594574 10.0837209,3.04594574 C8.70232558,3.04594574 6.85116279,3.6010262 6.85116279,5.26160305 C6.85116279,8.36507813 13.4248062,8.17227707 13.4248062,13.5458291 C13.4248062,18.2834487 9.7255814,20 5.49767442,20 C3.64806202,20 1.74108527,19.5584234 0,18.9193812 L0.995348837,15.6246599 C2.48682171,16.3165669 4.0620155,16.9524994 5.71937984,16.9524994 C7.57054264,16.9524994 9.39224806,16.0133717 9.39224806,13.9329861 C9.39224806,10.4439089 2.81860465,10.9974345 2.81860465,5.84311591 C2.81860465,1.77252585 6.29767442,0 10.0015504,0 C11.6837209,0 13.4248062,0.220788308 15,0.858275674 L14.0883721,4.04415766 Z" id="Fill-1"/>
                    <path d="M15.5657815,5.27398052 L18.1729028,5.27398052 L18.7899819,2.3127786 L22.6614363,1 L21.7742909,5.27398052 L25,5.27398052 L24.4357272,8.01403335 L21.2100181,8.01403335 L19.8928787,14.2987453 C19.8114062,14.63439 19.7314424,15.1394255 19.7314424,15.6993561 C19.7314424,16.5635628 20.2957151,17.0936932 21.1028968,17.0936932 C21.7471334,17.0936932 22.3928787,16.9572396 22.8515389,16.759617 L22.2314424,19.6659237 C21.6128546,19.8055143 20.9127942,20 20.2957151,20 C17.8500302,20 16.1300543,18.9962027 16.1300543,16.2294865 C16.1300543,15.1111937 16.3442969,14.0211326 16.5872058,12.8730395 L17.6071213,8.01403335 L15,8.01403335 L15.5657815,5.27398052 Z" id="Fill-3"/>
                    <path d="M35.118892,11.318338 C35.118892,9.45329585 34.480859,7.89284599 32.2913165,7.89284599 C29.3516962,7.89284599 27.8826642,11.1496407 27.8826642,13.7378944 C27.8826642,15.6310528 28.6576408,17.105592 30.7942733,17.105592 C33.676315,17.105592 35.118892,13.7660106 35.118892,11.318338 M39,11.2902218 C39,16.3261481 35.5343915,20 30.4892624,20 C26.4416433,20 24,17.494533 24,13.4598563 C24,8.67385192 27.6616869,5 32.4562714,5 C36.3093682,5 39,7.33833177 39,11.2902218" id="Fill-5"/>
                    <path d="M118.117739,11.318338 C118.117739,9.45329585 117.481328,7.89284599 115.2889,7.89284599 C112.351141,7.89284599 110.882261,11.1496407 110.882261,13.7378944 C110.882261,15.6310528 111.657158,17.105592 113.793568,17.105592 C116.675311,17.105592 118.117739,13.7660106 118.117739,11.318338 M122,11.2902218 C122,16.3261481 118.533195,20 113.487033,20 C109.44139,20 107,17.494533 107,13.4598563 C107,8.67385192 110.659751,5 115.45695,5 C119.308091,5 122,7.33833177 122,11.2902218" id="Fill-7"/>
                    <path d="M42.4166109,7.15166684 C42.5212324,6.56715305 42.625854,5.95579934 42.7304756,5.31760571 L46.0916276,5.31760571 L45.6186202,7.89572904 L45.6701942,7.89572904 C46.3008707,6.40760464 48.0337575,5 49.6620228,5 C50.1085064,5 50.5800402,5.02683992 51,5.13270849 L50.2647019,8.61295133 C49.8727395,8.48024284 49.3732083,8.39972308 48.9267247,8.39972308 C46.4320161,8.39972308 45.2237106,10.6602407 44.7787006,12.8640963 L43.5188212,19 L40,19 L42.4166109,7.15166684 Z" id="Fill-9"/>
                    <path d="M52.5881958,6.83257003 C52.6979699,6.30024497 52.8092901,5.74257109 52.8912342,5.31760571 L56.3344313,5.31760571 L56.0051089,7.15166684 L56.0592229,7.15166684 C57.0502823,5.74257109 58.6767948,5 60.4115354,5 C62.0921619,5 63.8269024,5.95579934 64.0186206,7.60198104 L64.0742807,7.60198104 C65.0112261,5.82159974 67.0768352,5 69.0605001,5 C71.1817693,5 73,6.67302162 73,8.74565981 C73,9.96836724 72.6706776,11.3476409 72.366093,12.4659708 L70.8771847,19 L67.1881554,19 L68.6755176,12.3317712 C68.8672358,11.5071893 69.1424442,10.2337842 69.1424442,9.40920226 C69.1424442,8.39972308 68.3446491,7.76152945 67.4077037,7.76152945 C64.8457919,7.76152945 64.213431,10.6319097 63.7449583,12.4898285 L62.2854262,19 L58.5948508,19 L60.0806668,12.3317712 C60.272385,11.5071893 60.5491396,10.2337842 60.5491396,9.40920226 C60.5491396,8.39972308 59.7497983,7.76152945 58.8128529,7.76152945 C56.3081474,7.76152945 55.6170341,10.6602407 55.1501076,12.4898285 L53.6890293,19 L50,19 L52.5881958,6.83257003 Z" id="Fill-11"/>
                    <path d="M92.0331411,4.43131462 C90.5425669,3.4626448 88.694069,3.04594574 86.6782302,3.04594574 C81.9849359,3.04594574 79.0301283,6.73093369 79.0301283,11.3021846 C79.0301283,14.432092 81.1838685,16.9540543 84.4702591,16.9540543 C85.3518981,16.9540543 85.9329431,16.9540543 86.3729879,16.7581435 L87.449858,11.6349219 L83.3639494,11.6349219 L83.9992253,8.58897613 L91.8115693,8.58897613 L89.6051476,19.1417243 C88.4724972,19.612843 86.3203064,20 84.4423689,20 C78.7837652,20 75,17.3971857 75,11.4125787 C75,4.34890772 79.6096238,0 86.568219,0 C88.7219592,0 90.9857106,0.304750058 93,1.07906398 L92.0331411,4.43131462 Z" id="Fill-13"/>
                    <path d="M102.359688,11.0949703 C102.415813,10.7606998 102.443875,10.4545455 102.443875,10.1202749 C102.443875,8.58950328 101.637862,7.72727273 100.08196,7.72727273 C97.7777283,7.72727273 96.7783964,9.12058732 96.0550111,11.0949703 L102.359688,11.0949703 Z M95.5561247,13.6551078 C95.5561247,16.2995939 96.9717149,17.2727273 99.5269488,17.2727273 C101.054788,17.2727273 102.526503,16.8837863 103.91559,16.2449235 L103.443207,19.1940019 C101.999555,19.6391753 100.417149,20 98.8893096,20 C94.7797327,20 92,17.9975008 92,13.7378944 C92,9.28616057 95.4454343,5 100.139644,5 C103.667706,5 106,6.81037176 106,10.4545455 C106,11.5417057 105.861247,12.5976257 105.639866,13.6551078 L95.5561247,13.6551078 Z" id="Fill-16"/>
                </g>
            </g>
        </g>
    </g>
<script xmlns=""/></svg>

<svg viewBox="0 0 122 20" xmlns="http://www.w3.org/2000/svg"><g id="Symbols" stroke="none" stroke-width="1" fill="none" fill-rule="evenodd"><g id="Top-Navigation" transform="translate(-79 -35)" fill="#000"><g transform="translate(79 35)" id="Logotype"><path d="M14.088 4.044c-1.133-.581-2.597-.998-4.004-.998-1.382 0-3.233.555-3.233 2.216 0 3.103 6.574 2.91 6.574 8.284 0 4.737-3.7 6.454-7.927 6.454-1.85 0-3.757-.442-5.498-1.08l.995-3.295c1.492.692 3.067 1.327 4.724 1.327 1.852 0 3.673-.939 3.673-3.019 0-3.49-6.573-2.936-6.573-8.09C2.819 1.773 6.298 0 10.002 0c1.682 0 3.423.22 4.998.858l-.912 3.186z" id="Fill-1"/><path d="M15.566 5.274h2.607l.617-2.961L22.661 1l-.887 4.274H25l-.564 2.74H21.21l-1.317 6.285c-.082.335-.162.84-.162 1.4 0 .865.565 1.395 1.372 1.395.644 0 1.29-.137 1.749-.334l-.62 2.906c-.62.14-1.32.334-1.936.334-2.446 0-4.166-1.004-4.166-3.77 0-1.119.214-2.209.457-3.357l1.02-4.859H15l.566-2.74z" id="Fill-3"/><path d="M35.119 11.318c0-1.865-.638-3.425-2.828-3.425-2.94 0-4.408 3.257-4.408 5.845 0 1.893.775 3.368 2.911 3.368 2.882 0 4.325-3.34 4.325-5.788M39 11.29c0 5.036-3.466 8.71-8.51 8.71-4.048 0-6.49-2.505-6.49-6.54C24 8.674 27.662 5 32.456 5 36.31 5 39 7.338 39 11.29" id="Fill-5"/><path d="M118.118 11.318c0-1.865-.637-3.425-2.83-3.425-2.937 0-4.406 3.257-4.406 5.845 0 1.893.775 3.368 2.912 3.368 2.881 0 4.324-3.34 4.324-5.788M122 11.29c0 5.036-3.467 8.71-8.513 8.71-4.046 0-6.487-2.505-6.487-6.54 0-4.786 3.66-8.46 8.457-8.46C119.308 5 122 7.338 122 11.29" id="Fill-7"/><path d="M42.417 7.152c.104-.585.209-1.196.313-1.834h3.362l-.473 2.578h.051C46.3 6.408 48.034 5 49.662 5c.447 0 .918.027 1.338.133l-.735 3.48a4.407 4.407 0 0 0-1.338-.213c-2.495 0-3.703 2.26-4.148 4.464L43.519 19H40l2.417-11.848z" id="Fill-9"/><path d="M52.588 6.833c.11-.533.221-1.09.303-1.515h3.443l-.329 1.834h.054C57.05 5.742 58.677 5 60.412 5c1.68 0 3.415.956 3.607 2.602h.055C65.011 5.822 67.077 5 69.061 5 71.18 5 73 6.673 73 8.746c0 1.222-.33 2.602-.634 3.72L70.877 19h-3.689l1.488-6.668c.191-.825.466-2.098.466-2.923 0-1.01-.797-1.647-1.734-1.647-2.562 0-3.195 2.87-3.663 4.728L62.285 19h-3.69l1.486-6.668c.191-.825.468-2.098.468-2.923 0-1.01-.8-1.647-1.736-1.647-2.505 0-3.196 2.898-3.663 4.728L53.69 19H50l2.588-12.167z" id="Fill-11"/><path d="M92.033 4.431c-1.49-.968-3.339-1.385-5.355-1.385-4.693 0-7.648 3.685-7.648 8.256 0 3.13 2.154 5.652 5.44 5.652.882 0 1.463 0 1.903-.196l1.077-5.123h-4.086l.635-3.046h7.813l-2.207 10.553c-1.133.47-3.285.858-5.163.858C78.784 20 75 17.397 75 11.413 75 4.349 79.61 0 86.568 0 88.722 0 90.986.305 93 1.08l-.967 3.351z" id="Fill-13"/><path d="M102.36 11.095c.056-.334.084-.64.084-.975 0-1.53-.806-2.393-2.362-2.393-2.304 0-3.304 1.394-4.027 3.368h6.305zm-6.804 2.56c0 2.645 1.416 3.618 3.97 3.618 1.529 0 3-.39 4.39-1.028l-.473 2.949c-1.443.445-3.026.806-4.554.806C94.78 20 92 17.998 92 13.738 92 9.286 95.445 5 100.14 5c3.528 0 5.86 1.81 5.86 5.455 0 1.087-.139 2.143-.36 3.2H95.556z" id="Fill-16"/></g></g></g><script/></svg>
